images/3233755.svg

<?xml version="1.0" encoding="UTF-8"?>
<svg xmlns="http://www.w3.org/2000/svg" xmlns:xlink="http://www.w3.org/1999/xlink" width="300pt" height="300pt" viewBox="0 0 300 300" version="1.1">
<defs>
<g>
<symbol overflow="visible" id="glyph0-0">
<path style="stroke:none;" d="M 0.453125 1.59375 L 0.453125 -6.34375 L 4.953125 -6.34375 L 4.953125 1.59375 Z M 0.953125 1.09375 L 4.453125 1.09375 L 4.453125 -5.84375 L 0.953125 -5.84375 Z M 0.953125 1.09375 "/>
</symbol>
<symbol overflow="visible" id="glyph0-1">
<path style="stroke:none;" d="M 3.546875 -5.953125 C 2.898438 -5.953125 2.382812 -5.710938 2 -5.234375 C 1.625 -4.753906 1.4375 -4.101562 1.4375 -3.28125 C 1.4375 -2.445312 1.625 -1.789062 2 -1.3125 C 2.382812 -0.832031 2.898438 -0.59375 3.546875 -0.59375 C 4.191406 -0.59375 4.703125 -0.832031 5.078125 -1.3125 C 5.453125 -1.789062 5.640625 -2.445312 5.640625 -3.28125 C 5.640625 -4.101562 5.453125 -4.753906 5.078125 -5.234375 C 4.703125 -5.710938 4.191406 -5.953125 3.546875 -5.953125 Z M 3.546875 -6.6875 C 4.460938 -6.6875 5.195312 -6.375 5.75 -5.75 C 6.300781 -5.132812 6.578125 -4.3125 6.578125 -3.28125 C 6.578125 -2.238281 6.300781 -1.410156 5.75 -0.796875 C 5.195312 -0.179688 4.460938 0.125 3.546875 0.125 C 2.617188 0.125 1.878906 -0.179688 1.328125 -0.796875 C 0.773438 -1.410156 0.5 -2.238281 0.5 -3.28125 C 0.5 -4.3125 0.773438 -5.132812 1.328125 -5.75 C 1.878906 -6.375 2.617188 -6.6875 3.546875 -6.6875 Z M 3.546875 -6.6875 "/>
</symbol>
<symbol overflow="visible" id="glyph0-2">
<path style="stroke:none;" d="M 0.890625 -6.5625 L 2.078125 -6.5625 L 4.984375 -1.078125 L 4.984375 -6.5625 L 5.84375 -6.5625 L 5.84375 0 L 4.65625 0 L 1.75 -5.484375 L 1.75 0 L 0.890625 0 Z M 0.890625 -6.5625 "/>
</symbol>
<symbol overflow="visible" id="glyph0-3">
<path style="stroke:none;" d="M 0.890625 -6.5625 L 1.765625 -6.5625 L 1.765625 -3.875 L 5 -3.875 L 5 -6.5625 L 5.890625 -6.5625 L 5.890625 0 L 5 0 L 5 -3.125 L 1.765625 -3.125 L 1.765625 0 L 0.890625 0 Z M 0.890625 -6.5625 "/>
</symbol>
</g>
</defs>
<g id="surface51917">
<rect x="0" y="0" width="300" height="300" style="fill:rgb(100%,100%,100%);fill-opacity:1;stroke:none;"/>
<path style="fill:none;stroke-width:1.2;stroke-linecap:butt;stroke-linejoin:miter;stroke:rgb(0%,0%,0%);stroke-opacity:1;stroke-miterlimit:10;" d="M 42.402344 114.628906 L 38.824219 124.605469 "/>
<path style="fill:none;stroke-width:1.2;stroke-linecap:butt;stroke-linejoin:miter;stroke:rgb(100%,0%,0%);stroke-opacity:1;stroke-miterlimit:10;" d="M 38.824219 124.605469 L 35.25 134.585938 "/>
<path style="fill:none;stroke-width:1.2;stroke-linecap:butt;stroke-linejoin:miter;stroke:rgb(100%,0%,0%);stroke-opacity:1;stroke-miterlimit:10;" d="M 35.25 134.585938 L 42.105469 142.671875 "/>
<path style="fill:none;stroke-width:1.2;stroke-linecap:butt;stroke-linejoin:miter;stroke:rgb(0%,0%,0%);stroke-opacity:1;stroke-miterlimit:10;" d="M 42.105469 142.671875 L 48.957031 150.757812 "/>
<path style=" stroke:none;fill-rule:nonzero;fill:rgb(100%,100%,100%);fill-opacity:1;" d="M 31.25 129.085938 L 39.25 129.085938 L 39.25 140.085938 L 31.25 140.085938 Z M 31.25 129.085938 "/>
<g style="fill:rgb(100%,0%,0%);fill-opacity:1;">
  <use xlink:href="#glyph0-1" x="31.25" y="137.749023"/>
</g>
<path style="fill:none;stroke-width:1.2;stroke-linecap:butt;stroke-linejoin:miter;stroke:rgb(0%,0%,0%);stroke-opacity:1;stroke-miterlimit:10;" d="M 48.957031 150.757812 L 69.820312 146.972656 "/>
<path style="fill:none;stroke-width:1.2;stroke-linecap:butt;stroke-linejoin:miter;stroke:rgb(0%,0%,0%);stroke-opacity:1;stroke-miterlimit:10;" d="M 51.9375 155.289062 L 68.625 152.257812 "/>
<path style="fill:none;stroke-width:1.2;stroke-linecap:butt;stroke-linejoin:miter;stroke:rgb(0%,0%,0%);stroke-opacity:1;stroke-miterlimit:10;" d="M 41.808594 170.714844 L 48.957031 150.757812 "/>
<path style="fill:none;stroke-width:1.2;stroke-linecap:butt;stroke-linejoin:miter;stroke:rgb(0%,0%,0%);stroke-opacity:1;stroke-miterlimit:10;" d="M 69.820312 146.972656 L 83.527344 163.144531 "/>
<path style="fill:none;stroke-width:1.2;stroke-linecap:butt;stroke-linejoin:miter;stroke:rgb(0%,0%,0%);stroke-opacity:1;stroke-miterlimit:10;" d="M 83.527344 163.144531 L 76.375 183.101562 "/>
<path style="fill:none;stroke-width:1.2;stroke-linecap:butt;stroke-linejoin:miter;stroke:rgb(0%,0%,0%);stroke-opacity:1;stroke-miterlimit:10;" d="M 87.507812 166.820312 L 81.789062 182.789062 "/>
<path style="fill:none;stroke-width:1.2;stroke-linecap:butt;stroke-linejoin:miter;stroke:rgb(0%,0%,0%);stroke-opacity:1;stroke-miterlimit:10;" d="M 104.71875 163.777344 L 83.527344 163.144531 "/>
<path style="fill:none;stroke-width:1.2;stroke-linecap:butt;stroke-linejoin:miter;stroke:rgb(0%,0%,0%);stroke-opacity:1;stroke-miterlimit:10;" d="M 76.375 183.101562 L 55.515625 186.886719 "/>
<path style="fill:none;stroke-width:1.2;stroke-linecap:butt;stroke-linejoin:miter;stroke:rgb(0%,0%,0%);stroke-opacity:1;stroke-miterlimit:10;" d="M 76.375 183.101562 L 84.761719 189.585938 "/>
<path style="fill:none;stroke-width:1.2;stroke-linecap:butt;stroke-linejoin:miter;stroke:rgb(0%,0%,100%);stroke-opacity:1;stroke-miterlimit:10;" d="M 84.761719 189.585938 L 93.148438 196.070312 "/>
<path style="fill:none;stroke-width:1.2;stroke-linecap:butt;stroke-linejoin:miter;stroke:rgb(0%,0%,0%);stroke-opacity:1;stroke-miterlimit:10;" d="M 55.515625 186.886719 L 41.808594 170.714844 "/>
<path style="fill:none;stroke-width:1.2;stroke-linecap:butt;stroke-linejoin:miter;stroke:rgb(0%,0%,0%);stroke-opacity:1;stroke-miterlimit:10;" d="M 57.953125 182.046875 L 46.984375 169.109375 "/>
<path style="fill:none;stroke-width:1.2;stroke-linecap:butt;stroke-linejoin:miter;stroke:rgb(0%,0%,100%);stroke-opacity:1;stroke-miterlimit:10;" d="M 93.148438 196.070312 L 101.90625 190.097656 "/>
<path style="fill:none;stroke-width:1.2;stroke-linecap:butt;stroke-linejoin:miter;stroke:rgb(0%,0%,0%);stroke-opacity:1;stroke-miterlimit:10;" d="M 101.90625 190.097656 L 110.664062 184.125 "/>
<path style=" stroke:none;fill-rule:nonzero;fill:rgb(100%,100%,100%);fill-opacity:1;" d="M 86.148438 190.570312 L 100.148438 190.570312 L 100.148438 201.570312 L 86.148438 201.570312 Z M 86.148438 190.570312 "/>
<g style="fill:rgb(0%,0%,100%);fill-opacity:1;">
  <use xlink:href="#glyph0-2" x="86.148438" y="199.233398"/>
  <use xlink:href="#glyph0-3" x="93.125977" y="199.233398"/>
</g>
<path style="fill:none;stroke-width:1.2;stroke-linecap:butt;stroke-linejoin:miter;stroke:rgb(0%,0%,0%);stroke-opacity:1;stroke-miterlimit:10;" d="M 110.664062 184.125 L 104.71875 163.777344 "/>
<path style="fill:none;stroke-width:1.2;stroke-linecap:butt;stroke-linejoin:miter;stroke:rgb(0%,0%,0%);stroke-opacity:1;stroke-miterlimit:10;" d="M 105.28125 183.492188 L 100.523438 167.210938 "/>
<path style="fill:none;stroke-width:1.2;stroke-linecap:butt;stroke-linejoin:miter;stroke:rgb(0%,0%,0%);stroke-opacity:1;stroke-miterlimit:10;" d="M 104.71875 163.777344 L 117.6875 147.003906 "/>
<path style="fill:none;stroke-width:1.2;stroke-linecap:butt;stroke-linejoin:miter;stroke:rgb(0%,0%,0%);stroke-opacity:1;stroke-miterlimit:10;" d="M 117.6875 147.003906 L 138.695312 149.851562 "/>
<path style="fill:none;stroke-width:1.2;stroke-linecap:butt;stroke-linejoin:miter;stroke:rgb(0%,0%,0%);stroke-opacity:1;stroke-miterlimit:10;" d="M 138.695312 149.851562 L 145.179688 141.464844 "/>
<path style="fill:none;stroke-width:1.2;stroke-linecap:butt;stroke-linejoin:miter;stroke:rgb(0%,0%,100%);stroke-opacity:1;stroke-miterlimit:10;" d="M 145.179688 141.464844 L 151.664062 133.078125 "/>
<path style="fill:none;stroke-width:1.2;stroke-linecap:butt;stroke-linejoin:miter;stroke:rgb(0%,0%,100%);stroke-opacity:1;stroke-miterlimit:10;" d="M 151.664062 133.078125 L 162.167969 134.5 "/>
<path style="fill:none;stroke-width:1.2;stroke-linecap:butt;stroke-linejoin:miter;stroke:rgb(0%,0%,0%);stroke-opacity:1;stroke-miterlimit:10;" d="M 162.167969 134.5 L 172.671875 135.925781 "/>
<path style=" stroke:none;fill-rule:nonzero;fill:rgb(100%,100%,100%);fill-opacity:1;" d="M 144.664062 127.578125 L 158.664062 127.578125 L 158.664062 138.578125 L 144.664062 138.578125 Z M 144.664062 127.578125 "/>
<g style="fill:rgb(0%,0%,100%);fill-opacity:1;">
  <use xlink:href="#glyph0-2" x="144.664062" y="136.241211"/>
  <use xlink:href="#glyph0-3" x="151.641602" y="136.241211"/>
</g>
<path style="fill:none;stroke-width:1.2;stroke-linecap:butt;stroke-linejoin:miter;stroke:rgb(0%,0%,0%);stroke-opacity:1;stroke-miterlimit:10;" d="M 172.671875 135.925781 L 176.695312 145.730469 "/>
<path style="fill:none;stroke-width:1.2;stroke-linecap:butt;stroke-linejoin:miter;stroke:rgb(0%,0%,100%);stroke-opacity:1;stroke-miterlimit:10;" d="M 176.695312 145.730469 L 180.714844 155.539062 "/>
<path style="fill:none;stroke-width:1.2;stroke-linecap:butt;stroke-linejoin:miter;stroke:rgb(0%,0%,0%);stroke-opacity:1;stroke-miterlimit:10;" d="M 178.09375 135.992188 L 181.308594 143.839844 "/>
<path style="fill:none;stroke-width:1.2;stroke-linecap:butt;stroke-linejoin:miter;stroke:rgb(0%,0%,100%);stroke-opacity:1;stroke-miterlimit:10;" d="M 181.308594 143.839844 L 184.527344 151.6875 "/>
<path style="fill:none;stroke-width:1.2;stroke-linecap:butt;stroke-linejoin:miter;stroke:rgb(0%,0%,0%);stroke-opacity:1;stroke-miterlimit:10;" d="M 185.640625 119.152344 L 172.671875 135.925781 "/>
<path style="fill:none;stroke-width:1.2;stroke-linecap:butt;stroke-linejoin:miter;stroke:rgb(0%,0%,100%);stroke-opacity:1;stroke-miterlimit:10;" d="M 180.714844 155.539062 L 191.21875 156.964844 "/>
<path style="fill:none;stroke-width:1.2;stroke-linecap:butt;stroke-linejoin:miter;stroke:rgb(0%,0%,0%);stroke-opacity:1;stroke-miterlimit:10;" d="M 191.21875 156.964844 L 201.722656 158.386719 "/>
<path style=" stroke:none;fill-rule:nonzero;fill:rgb(100%,100%,100%);fill-opacity:1;" d="M 177.714844 150.039062 L 184.714844 150.039062 L 184.714844 161.039062 L 177.714844 161.039062 Z M 177.714844 150.039062 "/>
<g style="fill:rgb(0%,0%,100%);fill-opacity:1;">
  <use xlink:href="#glyph0-2" x="177.714844" y="158.702148"/>
</g>
<path style="fill:none;stroke-width:1.2;stroke-linecap:butt;stroke-linejoin:miter;stroke:rgb(0%,0%,0%);stroke-opacity:1;stroke-miterlimit:10;" d="M 201.722656 158.386719 L 208.207031 150 "/>
<path style="fill:none;stroke-width:1.2;stroke-linecap:butt;stroke-linejoin:miter;stroke:rgb(0%,0%,100%);stroke-opacity:1;stroke-miterlimit:10;" d="M 208.207031 150 L 214.691406 141.613281 "/>
<path style="fill:none;stroke-width:1.2;stroke-linecap:butt;stroke-linejoin:miter;stroke:rgb(0%,0%,0%);stroke-opacity:1;stroke-miterlimit:10;" d="M 199.074219 153.65625 L 204.261719 146.949219 "/>
<path style="fill:none;stroke-width:1.2;stroke-linecap:butt;stroke-linejoin:miter;stroke:rgb(0%,0%,100%);stroke-opacity:1;stroke-miterlimit:10;" d="M 204.261719 146.949219 L 209.449219 140.238281 "/>
<path style="fill:none;stroke-width:1.2;stroke-linecap:butt;stroke-linejoin:miter;stroke:rgb(0%,0%,0%);stroke-opacity:1;stroke-miterlimit:10;" d="M 201.722656 158.386719 L 209.765625 178.003906 "/>
<path style="fill:none;stroke-width:1.2;stroke-linecap:butt;stroke-linejoin:miter;stroke:rgb(0%,0%,100%);stroke-opacity:1;stroke-miterlimit:10;" d="M 214.691406 141.613281 L 210.671875 131.804688 "/>
<path style="fill:none;stroke-width:1.2;stroke-linecap:butt;stroke-linejoin:miter;stroke:rgb(0%,0%,0%);stroke-opacity:1;stroke-miterlimit:10;" d="M 210.671875 131.804688 L 206.652344 121.996094 "/>
<path style=" stroke:none;fill-rule:nonzero;fill:rgb(100%,100%,100%);fill-opacity:1;" d="M 211.691406 136.113281 L 218.691406 136.113281 L 218.691406 147.113281 L 211.691406 147.113281 Z M 211.691406 136.113281 "/>
<g style="fill:rgb(0%,0%,100%);fill-opacity:1;">
  <use xlink:href="#glyph0-2" x="211.691406" y="144.776367"/>
</g>
<path style="fill:none;stroke-width:1.2;stroke-linecap:butt;stroke-linejoin:miter;stroke:rgb(0%,0%,0%);stroke-opacity:1;stroke-miterlimit:10;" d="M 206.652344 121.996094 L 219.621094 105.226562 "/>
<path style="fill:none;stroke-width:1.2;stroke-linecap:butt;stroke-linejoin:miter;stroke:rgb(0%,0%,0%);stroke-opacity:1;stroke-miterlimit:10;" d="M 204 117.269531 L 214.375 103.851562 "/>
<path style="fill:none;stroke-width:1.2;stroke-linecap:butt;stroke-linejoin:miter;stroke:rgb(0%,0%,0%);stroke-opacity:1;stroke-miterlimit:10;" d="M 185.640625 119.152344 L 206.652344 121.996094 "/>
<path style="fill:none;stroke-width:1.2;stroke-linecap:butt;stroke-linejoin:miter;stroke:rgb(0%,0%,0%);stroke-opacity:1;stroke-miterlimit:10;" d="M 219.621094 105.226562 L 211.578125 85.609375 "/>
<path style="fill:none;stroke-width:1.2;stroke-linecap:butt;stroke-linejoin:miter;stroke:rgb(0%,0%,0%);stroke-opacity:1;stroke-miterlimit:10;" d="M 211.578125 85.609375 L 190.570312 82.761719 "/>
<path style="fill:none;stroke-width:1.2;stroke-linecap:butt;stroke-linejoin:miter;stroke:rgb(0%,0%,0%);stroke-opacity:1;stroke-miterlimit:10;" d="M 208.808594 90.265625 L 192 87.992188 "/>
<path style="fill:none;stroke-width:1.2;stroke-linecap:butt;stroke-linejoin:miter;stroke:rgb(0%,0%,0%);stroke-opacity:1;stroke-miterlimit:10;" d="M 190.570312 82.761719 L 177.601562 99.535156 "/>
<path style="fill:none;stroke-width:1.2;stroke-linecap:butt;stroke-linejoin:miter;stroke:rgb(0%,0%,0%);stroke-opacity:1;stroke-miterlimit:10;" d="M 177.601562 99.535156 L 185.640625 119.152344 "/>
<path style="fill:none;stroke-width:1.2;stroke-linecap:butt;stroke-linejoin:miter;stroke:rgb(0%,0%,0%);stroke-opacity:1;stroke-miterlimit:10;" d="M 183.019531 99.605469 L 189.453125 115.296875 "/>
<path style="fill:none;stroke-width:1.2;stroke-linecap:butt;stroke-linejoin:miter;stroke:rgb(0%,0%,0%);stroke-opacity:1;stroke-miterlimit:10;" d="M 209.765625 178.003906 L 196.796875 194.773438 "/>
<path style="fill:none;stroke-width:1.2;stroke-linecap:butt;stroke-linejoin:miter;stroke:rgb(0%,0%,0%);stroke-opacity:1;stroke-miterlimit:10;" d="M 212.414062 182.730469 L 202.039062 196.148438 "/>
<path style="fill:none;stroke-width:1.2;stroke-linecap:butt;stroke-linejoin:miter;stroke:rgb(0%,0%,0%);stroke-opacity:1;stroke-miterlimit:10;" d="M 230.773438 180.847656 L 209.765625 178.003906 "/>
<path style="fill:none;stroke-width:1.2;stroke-linecap:butt;stroke-linejoin:miter;stroke:rgb(0%,0%,0%);stroke-opacity:1;stroke-miterlimit:10;" d="M 196.796875 194.773438 L 204.835938 214.390625 "/>
<path style="fill:none;stroke-width:1.2;stroke-linecap:butt;stroke-linejoin:miter;stroke:rgb(0%,0%,0%);stroke-opacity:1;stroke-miterlimit:10;" d="M 204.835938 214.390625 L 225.84375 217.238281 "/>
<path style="fill:none;stroke-width:1.2;stroke-linecap:butt;stroke-linejoin:miter;stroke:rgb(0%,0%,0%);stroke-opacity:1;stroke-miterlimit:10;" d="M 207.605469 209.734375 L 224.414062 212.007812 "/>
<path style="fill:none;stroke-width:1.2;stroke-linecap:butt;stroke-linejoin:miter;stroke:rgb(0%,0%,0%);stroke-opacity:1;stroke-miterlimit:10;" d="M 225.84375 217.238281 L 238.8125 200.464844 "/>
<path style="fill:none;stroke-width:1.2;stroke-linecap:butt;stroke-linejoin:miter;stroke:rgb(0%,0%,0%);stroke-opacity:1;stroke-miterlimit:10;" d="M 238.8125 200.464844 L 230.773438 180.847656 "/>
<path style="fill:none;stroke-width:1.2;stroke-linecap:butt;stroke-linejoin:miter;stroke:rgb(0%,0%,0%);stroke-opacity:1;stroke-miterlimit:10;" d="M 233.394531 200.394531 L 226.960938 184.703125 "/>
<path style="fill:none;stroke-width:1.2;stroke-linecap:butt;stroke-linejoin:miter;stroke:rgb(0%,0%,0%);stroke-opacity:1;stroke-miterlimit:10;" d="M 230.773438 180.847656 L 237.257812 172.460938 "/>
<path style="fill:none;stroke-width:1.2;stroke-linecap:butt;stroke-linejoin:miter;stroke:rgb(100%,0%,0%);stroke-opacity:1;stroke-miterlimit:10;" d="M 237.257812 172.460938 L 243.742188 164.074219 "/>
<path style="fill:none;stroke-width:1.2;stroke-linecap:butt;stroke-linejoin:miter;stroke:rgb(100%,0%,0%);stroke-opacity:1;stroke-miterlimit:10;" d="M 243.742188 164.074219 L 254.246094 165.5 "/>
<path style="fill:none;stroke-width:1.2;stroke-linecap:butt;stroke-linejoin:miter;stroke:rgb(0%,0%,0%);stroke-opacity:1;stroke-miterlimit:10;" d="M 254.246094 165.5 L 264.75 166.921875 "/>
<path style=" stroke:none;fill-rule:nonzero;fill:rgb(100%,100%,100%);fill-opacity:1;" d="M 239.742188 158.574219 L 247.742188 158.574219 L 247.742188 169.574219 L 239.742188 169.574219 Z M 239.742188 158.574219 "/>
<g style="fill:rgb(100%,0%,0%);fill-opacity:1;">
  <use xlink:href="#glyph0-1" x="239.742188" y="167.237305"/>
</g>
</g>
</svg>

<svg xmlns="http://www.w3.org/2000/svg" xmlns:xlink="http://www.w3.org/1999/xlink" width="300pt" height="300pt" viewBox="0 0 300 300"><defs><symbol overflow="visible"><path d="M.453 1.594v-7.938h4.5v7.938zm.5-.5h3.5v-6.938h-3.5zm0 0"/></symbol><symbol overflow="visible" id="a"><path d="M3.547-5.953c-.65 0-1.164.242-1.547.72-.375.48-.563 1.13-.563 1.952 0 .835.188 1.49.563 1.967.383.48.898.72 1.547.72.644 0 1.156-.24 1.53-.72.376-.476.564-1.132.564-1.968 0-.822-.187-1.474-.562-1.954-.375-.477-.887-.72-1.53-.72zm0-.734c.914 0 1.648.312 2.203.937.55.617.828 1.438.828 2.47 0 1.042-.277 1.87-.828 2.483-.555.617-1.29.922-2.203.922-.93 0-1.668-.305-2.22-.922C.774-1.41.5-2.237.5-3.28c0-1.033.273-1.853.828-2.47.55-.625 1.29-.938 2.22-.938zm0 0"/></symbol><symbol overflow="visible" id="b"><path d="M.89-6.563H2.08l2.906 5.485v-5.484h.86V0H4.656L1.75-5.484V0H.89zm0 0"/></symbol><symbol overflow="visible" id="c"><path d="M.89-6.563h.876v2.688H5v-2.688h.89V0H5v-3.125H1.766V0H.89zm0 0"/></symbol></defs><g><path fill="#fff" d="M0 0h300v300H0z"/><path d="M42.402 114.63l-3.578 9.975" stroke-width="1.2" stroke="#000" stroke-miterlimit="10" fill="none"/><path d="M38.824 124.605l-3.574 9.98M35.25 134.586l6.855 8.086" stroke-width="1.2" stroke="#f00" stroke-miterlimit="10" fill="none"/><path d="M42.105 142.672l6.852 8.086" stroke-width="1.2" stroke="#000" stroke-miterlimit="10" fill="none"/><path d="M31.25 129.086h8v11h-8zm0 0" fill="#fff"/><use xlink:href="#a" x="31.25" y="137.749" fill="#f00"/><path d="M48.957 150.758l20.863-3.785M51.938 155.29l16.687-3.032M41.81 170.715l7.147-19.957M69.82 146.973l13.707 16.172M83.527 163.145l-7.152 19.957M87.508 166.82l-5.72 15.97M104.72 163.777l-21.193-.632M76.375 183.102l-20.86 3.785M76.375 183.102l8.387 6.484" stroke-width="1.2" stroke="#000" stroke-miterlimit="10" fill="none"/><path d="M84.762 189.586l8.386 6.484" stroke-width="1.2" stroke="#00f" stroke-miterlimit="10" fill="none"/><path d="M55.516 186.887L41.81 170.715M57.953 182.047l-10.97-12.938" stroke-width="1.2" stroke="#000" stroke-miterlimit="10" fill="none"/><path d="M93.148 196.07l8.758-5.972" stroke-width="1.2" stroke="#00f" stroke-miterlimit="10" fill="none"/><path d="M101.906 190.098l8.758-5.973" stroke-width="1.2" stroke="#000" stroke-miterlimit="10" fill="none"/><path d="M86.148 190.57h14v11h-14zm0 0" fill="#fff"/><g fill="#00f"><use xlink:href="#b" x="86.148" y="199.233"/><use xlink:href="#c" x="93.126" y="199.233"/></g><path d="M110.664 184.125l-5.945-20.348M105.28 183.492l-4.757-16.28M104.72 163.777l12.968-16.773M117.688 147.004l21.007 2.848M138.695 149.852l6.485-8.387" stroke-width="1.2" stroke="#000" stroke-miterlimit="10" fill="none"/><path d="M145.18 141.465l6.484-8.387M151.664 133.078l10.504 1.422" stroke-width="1.2" stroke="#00f" stroke-miterlimit="10" fill="none"/><path d="M162.168 134.5l10.504 1.426" stroke-width="1.2" stroke="#000" stroke-miterlimit="10" fill="none"/><path d="M144.664 127.578h14v11h-14zm0 0" fill="#fff"/><g fill="#00f"><use xlink:href="#b" x="144.664" y="136.241"/><use xlink:href="#c" x="151.642" y="136.241"/></g><path d="M172.672 135.926l4.023 9.804" stroke-width="1.2" stroke="#000" stroke-miterlimit="10" fill="none"/><path d="M176.695 145.73l4.02 9.81" stroke-width="1.2" stroke="#00f" stroke-miterlimit="10" fill="none"/><path d="M178.094 135.992l3.215 7.848" stroke-width="1.2" stroke="#000" stroke-miterlimit="10" fill="none"/><path d="M181.31 143.84l3.217 7.847" stroke-width="1.2" stroke="#00f" stroke-miterlimit="10" fill="none"/><path d="M185.64 119.152l-12.968 16.774" stroke-width="1.2" stroke="#000" stroke-miterlimit="10" fill="none"/><path d="M180.715 155.54l10.504 1.425" stroke-width="1.2" stroke="#00f" stroke-miterlimit="10" fill="none"/><path d="M191.22 156.965l10.503 1.422" stroke-width="1.2" stroke="#000" stroke-miterlimit="10" fill="none"/><path d="M177.715 150.04h7v11h-7zm0 0" fill="#fff"/><use xlink:href="#b" x="177.715" y="158.702" fill="#00f"/><path d="M201.723 158.387l6.484-8.387" stroke-width="1.2" stroke="#000" stroke-miterlimit="10" fill="none"/><path d="M208.207 150l6.484-8.387" stroke-width="1.2" stroke="#00f" stroke-miterlimit="10" fill="none"/><path d="M199.074 153.656l5.188-6.707" stroke-width="1.2" stroke="#000" stroke-miterlimit="10" fill="none"/><path d="M204.262 146.95l5.187-6.712" stroke-width="1.2" stroke="#00f" stroke-miterlimit="10" fill="none"/><path d="M201.723 158.387l8.043 19.617" stroke-width="1.2" stroke="#000" stroke-miterlimit="10" fill="none"/><path d="M214.69 141.613l-4.018-9.808" stroke-width="1.2" stroke="#00f" stroke-miterlimit="10" fill="none"/><path d="M210.672 131.805l-4.02-9.81" stroke-width="1.2" stroke="#000" stroke-miterlimit="10" fill="none"/><path d="M211.69 136.113h7v11h-7zm0 0" fill="#fff"/><use xlink:href="#b" x="211.691" y="144.776" fill="#00f"/><path d="M206.652 121.996l12.97-16.77M204 117.27l10.375-13.418M185.64 119.152l21.012 2.844M219.62 105.227L211.58 85.61M211.578 85.61L190.57 82.76M208.81 90.266L192 87.992M190.57 82.762l-12.968 16.773M177.602 99.535l8.04 19.617M183.02 99.605l6.433 15.692M209.766 178.004l-12.97 16.77M212.414 182.73l-10.375 13.418M230.773 180.848l-21.007-2.844M196.797 194.773l8.04 19.618M204.836 214.39l21.008 2.848M207.605 209.734l16.81 2.274M225.844 217.238l12.97-16.773M238.813 200.465l-8.04-19.617M233.395 200.395l-6.434-15.692M230.773 180.848l6.485-8.387" stroke-width="1.2" stroke="#000" stroke-miterlimit="10" fill="none"/><path d="M237.258 172.46l6.484-8.386M243.742 164.074l10.504 1.426" stroke-width="1.2" stroke="#f00" stroke-miterlimit="10" fill="none"/><path d="M254.246 165.5l10.504 1.422" stroke-width="1.2" stroke="#000" stroke-miterlimit="10" fill="none"/><path d="M239.742 158.574h8v11h-8zm0 0" fill="#fff"/><use xlink:href="#a" x="239.742" y="167.237" fill="#f00"/></g></svg>
